src/assets/icons/weeks,simple,39.svg

<svg width="48" height="48" viewBox="0 0 48 48" fill="none" xmlns="http://www.w3.org/2000/svg">
<rect opacity="0.2" x="5" y="5" width="38" height="38" rx="4" fill="black"/>
<path d="M5 13C5 9.22876 5 7.34315 6.17157 6.17157C7.34315 5 9.22876 5 13 5H35C38.7712 5 40.6569 5 41.8284 6.17157C43 7.34315 43 9.22876 43 13V15H5V13Z" fill="black"/>
<path d="M16.0344 38.2386C19.9549 38.2386 22.7589 36.0824 22.7504 33.0994C22.7589 30.9261 21.3782 29.375 18.8129 29.0511V28.9148C20.7646 28.5653 22.1112 27.1847 22.1026 25.2244C22.1112 22.4716 19.6992 20.3068 16.0856 20.3068C12.506 20.3068 9.81286 22.4034 9.76172 25.4205H13.2987C13.3413 24.0909 14.56 23.2301 16.0685 23.2301C17.56 23.2301 18.5572 24.1335 18.5487 25.446C18.5572 26.8182 17.3896 27.7472 15.7106 27.7472H14.0827V30.4574H15.7106C17.6879 30.4574 18.9237 31.446 18.9151 32.8523C18.9237 34.2415 17.7305 35.196 16.043 35.196C14.4151 35.196 13.1964 34.3438 13.1282 33.0653H9.41229C9.47195 36.1165 12.1992 38.2386 16.0344 38.2386ZM31.7184 20.3068C27.815 20.2898 25.1815 22.8466 25.1985 26.358C25.207 29.6136 27.4656 31.9744 30.5593 31.9744C32.4769 31.9744 34.1815 31.0455 34.957 29.5114H35.0763C35.0678 32.9716 33.8661 35.0767 31.5906 35.0767C30.2525 35.0767 29.2894 34.3438 29.0082 33.0739H25.369C25.7099 36.0142 28.0962 38.2386 31.5906 38.2386C35.9116 38.2386 38.6985 34.7443 38.69 28.821C38.6815 22.4972 35.3065 20.3239 31.7184 20.3068ZM31.744 23.2045C33.44 23.2045 34.6928 24.5852 34.7099 26.2472C34.7184 27.9176 33.3974 29.2983 31.7099 29.2983C30.0053 29.2983 28.7866 27.9688 28.7781 26.2557C28.761 24.5511 30.0309 23.2045 31.744 23.2045Z" fill="black"/>
</svg>

<svg xmlns="http://www.w3.org/2000/svg" width="48" height="48" fill="none" viewBox="0 0 48 48">
  <rect width="38" height="38" x="5" y="5" fill="#000" opacity=".2" rx="4"/>
  <path fill="#000" d="M5 13c0-3.771 0-5.657 1.172-6.828C7.343 5 9.229 5 13 5h22c3.771 0 5.657 0 6.828 1.172C43 7.343 43 9.229 43 13v2H5v-2zM16.034 38.239c3.92 0 6.725-2.157 6.716-5.14.009-2.173-1.372-3.724-3.937-4.048v-.136c1.952-.35 3.298-1.73 3.29-3.69.008-2.753-2.404-4.918-6.017-4.918-3.58 0-6.273 2.096-6.324 5.114h3.537c.042-1.33 1.261-2.19 2.77-2.19 1.491 0 2.488.902 2.48 2.215.008 1.372-1.16 2.301-2.838 2.301h-1.628v2.71h1.628c1.977 0 3.213.989 3.204 2.395.009 1.39-1.184 2.344-2.872 2.344-1.628 0-2.847-.852-2.915-2.13H9.412c.06 3.05 2.787 5.173 6.622 5.173zm15.684-17.932c-3.903-.017-6.537 2.54-6.52 6.051.009 3.256 2.268 5.616 5.361 5.616 1.918 0 3.622-.928 4.398-2.463h.12c-.01 3.46-1.21 5.566-3.486 5.566-1.338 0-2.302-.733-2.583-2.003H25.37c.34 2.94 2.727 5.165 6.222 5.165 4.32 0 7.108-3.495 7.099-9.418-.008-6.324-3.383-8.497-6.972-8.514zm.026 2.898c1.696 0 2.949 1.38 2.966 3.042.008 1.67-1.313 3.051-3 3.051-1.705 0-2.923-1.33-2.932-3.042-.017-1.705 1.253-3.052 2.966-3.052z"/>
</svg>
